src/main/resources/icons/DatabaseIcons/icons/index.svg

<svg xmlns="http://www.w3.org/2000/svg" width="16" height="16" viewBox="0 0 16 16"><rect id="frame" width="16" height="16" fill="none"/><path fill="#40B6E0" fill-rule="evenodd" d="M7 3.5h2V1H7v2.5zM5 5h4v8h3v2H4v-2h3V6.996H5V5z"/></svg>

<svg xmlns="http://www.w3.org/2000/svg" width="16" height="16" viewBox="0 0 16 16">
  <path fill="#40B6E0" fill-rule="evenodd" d="M7,3.5 L9,3.5 L9,1 L7,1 L7,3.5 Z M5,5 L9,5 L9,13 L12,13 L12,15 L4,15 L4,13 L7,13 L7,6.996 L5,6.996 L5,5 Z"/>
</svg>
